!!!!SEGMENT: pl-cz--ii-16--001_szlagorski-walenty--talnce-walz-1.krn
!!!cenid: 18xx:1065
!!!COM: Szlagórski, Walenty
!!!COM-rismID: pe30111815
!!!CDT: 1801-1863/07/16
!!!CNT: Polish
!!!GTL: Tańce
!!!OTL: Walz 1
!!!PDT:
!!!AGN: Secular; Waltz
!!!SMS-siglum: PL-CZ
!!!SMS-shelfmark: II-16
!!!SMS-shelfwork: 001 G
!!!SMS-variant:
!!!SMS-altvar:
!!!NIFC-rismSourceID: 300001293
!!!NIFC-rismChildID: 300001294
!!!NIFC-islandoraID: pl-cz:32636
!!!URL-pdf-islandora: https://repozytorium.nifc.pl/islandora/object/pl-cz%3A32636/datastream/PDF/view
!!!URL-scan:
!!!ONB-nifc: UWAGA: zbiór zawiera Walce nr 1-5, Galop, Mazury nr 1-4
!!!AIN: 1 cbass 2 clars 1 clrno 2 cor 1 flt 2 violn
!!!key: D
**kern	**kern	**kern	**dynam	**kern	**dynam	**kern	**dynam	**kern	**dynam	**kern	**dynam	**kern	**dynam	**kern	**dynam
*group3	*group3	*group3	*	*group2	*	*group2	*	*group2	*	*group1	*	*group1	*	*group1	*
*part9	*part8	*part7	*part7	*part6	*part6	*part5	*part5	*part4	*part4	*part3	*part3	*part2	*part2	*part1	*part1
*staff9	*staff8	*staff7	*	*staff6	*	*staff5	*	*staff4	*	*staff3	*	*staff2	*	*staff1	*
*I"Baſso	*I"Violino 2.do	*I"Violino 1mo	*	*I"Clarino in D.	*	*I"Corno 2do in D.	*	*I"Corno 1mo in D.	*	*I"Clarinetto 2do in A.	*	*I"Clarinetto 1mo in A.	*	*I"Flauto	*
*mI"Contrabasso	*mI"Violino II	*mI"Violino I	*	*mI"Clarino in D	*	*mI"Corno II in D	*	*mI"Corno I in D	*	*mI"Clarinetto II in A	*	*mI"Clarinetto I in A	*	*	*
*I'cb	*I'vl 2	*I'vl 1	*	*I'clno in D	*	*I'cor 2 in D	*	*I'cor 1 in D	*	*I'cl 2 in A	*	*I'cl 1 in A	*	*I'fl	*
*Icbass	*Ivioln	*Ivioln	*	*Iclrno	*	*Icor	*	*Icor	*	*Iclars	*	*Iclars	*	*Iflt	*
*ICstr	*ICstr	*ICstr	*	*ICbras	*	*ICbras	*	*ICbras	*	*ICww	*	*ICww	*	*ICww	*
*>[A,B,A]	*>[A,B,A]	*>[A,B,A]	*>[A,B,A]	*>[A,B,A]	*>[A,B,A]	*>[A,B,A]	*>[A,B,A]	*>[A,B,A]	*>[A,B,A]	*>[A,B,A]	*>[A,B,A]	*>[A,B,A]	*>[A,B,A]	*>[A,B,A]	*>[A,B,A]
*>A	*>A	*>A	*>A	*>A	*>A	*>A	*>A	*>A	*>A	*>A	*>A	*>A	*>A	*>A	*>A
*clefF4	*clefG2	*clefG2	*	*clefG2	*	*clefG2	*	*clefG2	*	*clefG2	*	*clefG2	*	*clefG2	*
*	*	*	*	*ITrd-1c-2	*	*ITrd6c10	*	*ITrd6c10	*	*ITrd2c3	*	*ITrd2c3	*	*	*
*k[f#c#]	*k[f#c#]	*k[f#c#]	*	*k[f#c#]	*	*k[f#c#]	*	*k[f#c#]	*	*k[f#c#]	*	*k[f#c#]	*	*k[f#c#]	*
*D:	*D:	*D:	*	*D:	*	*D:	*	*D:	*	*D:	*	*D:	*	*D:	*
*M3/4	*M3/4	*M3/4	*	*M3/4	*	*M3/4	*	*M3/4	*	*M3/4	*	*M3/4	*	*M3/4	*
=1	=1	=1	=1	=1	=1	=1	=1	=1	=1	=1	=1	=1	=1	=1	=1
*	*	*	*below	*	*	*	*	*	*	*	*	*	*	*	*
!	!	!	!	!	!	!	!	!	!	!	!	!	!LO:DY:t= :mod=%s	!	!
!	!	!	!	!	!	!	!	!	!	!	!	!	!LO:MO:mod=!LO&colon;DY&colon;ed=brack	!	!
!	!	!	!LO:DY:rj	!	!LO:DY:rj	!	!	!	!	!	!LO:DY:rj	!	!null	!	!LO:DY:rj
4D\	4dd 4d/	4ddd 4dd\	ff	4d/	ff	4d\	.	4f#\	.	4f#\	ff	4dd\	ff	4ddd\	ff
4D\	8f#L 8A/	8dddL 8dd\	.	8d/L	.	8d\L	.	8f#\L	.	8f#\L	.	8dd\L	.	8ddd\L	.
.	8f#J 8A/	8dddJ 8dd\	.	8d/J	.	8d\J	.	8f#\J	.	8f#\J	.	8dd\J	.	8ddd\J	.
4D\	4f# 4A/	4ddd 4dd\	.	4d/	.	4d\	.	4f#\	.	4f#\	.	4dd\	.	4ddd\	.
=2	=2	=2	=2	=2	=2	=2	=2	=2	=2	=2	=2	=2	=2	=2	=2
!LO:MO:mod=*2\left	!	!LO:MO:mod=*2\left	!	!	!	!LO:MO:mod=*2\left	!	!LO:MO:mod=*2\left	!	!LO:MO:mod=*2\left	!	!LO:MO:mod=*2\left	!	!LO:MO:mod=*2\left	!
*2\right	*	*2\right	*	*	*	*2\right	*	*2\right	*	*2\right	*	*2\right	*	*2\right	*
2D\	2f# 2A/	2ddd 2dd\	.	2d/	.	2d\	.	2f#\	.	2f#\	.	2dd\	.	2ddd\	.
4D\	4f#/	4aa\	.	4r	.	4r	.	4r	.	4f#\	.	4a\	.	4aa\	.
=3	=3	=3	=3	=3	=3	=3	=3	=3	=3	=3	=3	=3	=3	=3	=3
!	!LO:MO:mod=(4g/	!	!	!LO:TX:a:t=1:mod=	!	!	!	!	!	!	!	!	!	!	!
4D\	4g/	(4bb\	.	2.r	.	2.D/	.	(4g/	.	(4g\	.	(4cc#\	.	(4bb\	.
!	!LO:MO:mod=4f#/)/	!	!	!	!	!	!	!	!	!	!	!	!	!	!
4D\	4f#/	4aa\)	.	.	.	.	.	4f#/)	.	4f#\)	<	4a\)	.	4aa\)	.
!	!LO:MO:mod=4e#X'/	!	!	!	!	!	!	!LO:MO:mod=4e#X'/	!	!LO:MO:mod=4e#X'\	!	!	!	!	!
4D\	4e#X/	4gg#X'\	.	.	.	.	.	4e#X/	.	4e#X\	[	4b'\	.	4gg#X'\	.
=4	=4	=4	=4	=4	=4	=4	=4	=4	=4	=4	=4	=4	=4	=4	=4
2D\	2f#/	2aa\	.	2d/	.	2d\	.	2f#\	.	2f#/	.	2a\	.	2aa\	.
4r	4d/	4ff#\	.	4r	.	4r	.	4r	.	4d/	.	4f#\	.	4ff#\	.
=5	=5	=5	=5	=5	=5	=5	=5	=5	=5	=5	=5	=5	=5	=5	=5
!	!	!	!LO:MO:mod= 	!LO:TX:a:t=2:mod=	!	!	!	!	!	!	!	!	!	!	!
.	.	8qff#/	p	.	.	.	.	.	.	.	.	.	.	8qfff#/	.
!	!	!	!LO:DY:p= :mod=%s	!	!	!	!	!	!LO:MO:mod= 	!	!	!	!	!	!
4AA/	4r	4ee\	p	1.r	.	4r	.	4r	p	4r	.	4r	.	4eee\	.
!	!	!	!	!	!	!	!LO:DY:t= :mod=%s	!	!	!	!	!	!LO:DY:t= :mod=%s	!	!
!	!	!	!	!	!	!	!LO:MO:mod=!LO&colon;DY&colon;ed=brack	!	!	!	!	!	!LO:MO:mod=!LO&colon;DY&colon;ed=brack	!	!
!	!	!LO:SIC:v:s=4dd#\	!	!	!	!	!null	!	!LO:DY:p= :mod=%s	!	!	!	!null	!	!
4r	4g 4A/	4dd\	.	.	.	4A\	p	4e\	p	4g\	p	4cc#\	p	4ddd#X\	.
4r	4g 4A/	4ee\	.	.	.	4A\	.	4e\	.	4g\	.	4cc#\	.	4eee\	.
=6	=6	=6	=6	=6	=6	=6	=6	=6	=6	=6	=6	=6	=6	=6	=6
4D\	4r	4.ff#\	.	.	.	4r	.	4r	.	4r	.	4r	.	4.fff#\	.
4r	4f# 4A/	.	.	.	.	4d\	.	4f#\	.	4f#\	.	4dd\	.	.	.
.	.	8cc#\L	.	.	.	.	.	.	.	.	.	.	.	8ccc#\L	.
4r	4f# 4A/	8dd\	.	.	.	4d\	.	4f#\	.	4f#\	.	4dd\	.	8ddd\	.
.	.	8b\J	.	.	.	.	.	.	.	.	.	.	.	8bb\J	.
=7	=7	=7	=7	=7	=7	=7	=7	=7	=7	=7	=7	=7	=7	=7	=7
!	!	!	!	!	!	!	!	!	!	!	!LO:DY:t= :mod=%s	!	!	!	!
!	!	!	!	!	!	!	!	!	!	!	!LO:MO:mod=!LO&colon;DY&colon;ed=brack	!	!	!	!
!	!	!	!LO:DY:rj	!	!	!	!LO:DY:rj	!	!	!	!null	!	!	!	!LO:DY:rj
4AA/	4r	4a/	f	4A/	.	4A\	ff	4e\	ff	4g\	f	4cc#\	f	4aa\	ff
4A\	4g 4A/	8aa\L	.	8A/L	.	4A\	.	4e\	.	4g\	.	4cc#\	.	8aaa\L	.
.	.	8aa\J	.	8A/J	.	.	.	.	.	.	.	.	.	8aaa\J	.
4A\	4g 4A/	4aa\	.	4A/	.	4A\	.	4e\	.	4g\	.	4cc#\	.	4aaa\	.
!	!	!LO:LB:g=original	!	!	!	!LO:LB:g=original	!	!LO:LB:g=original	!	!LO:LB:g=original	!	!	!	!LO:LB:g=original	!
=8	=8	=8	=8	=8	=8	=8	=8	=8	=8	=8	=8	=8	=8	=8	=8
4D\	4r	(8dd\L	.	4d/	.	2.F#/	.	2.d\	.	2.f#/	.	2.dd\	.	8ddd'\L	.
.	.	8ddd\)	.	.	.	.	.	.	.	.	.	.	.	8ddd'\	.
4d\	4f# 4A/	8ccc#'\	.	8a/L	.	.	.	.	.	.	.	.	.	8ccc#\	.
.	.	8bb'\J	.	8f#/J	.	.	.	.	.	.	.	.	.	8bb\J	.
4d\	4f# 4A/	4aa\	.	4d/	.	.	.	.	.	.	.	.	.	4aa\	.
!LO:LB:g=original	!LO:LB:g=original	!	!	!LO:LB:g=original	!	!	!	!	!	!	!	!LO:LB:g=original	!	!	!
=9	=9	=9	=9	=9	=9	=9	=9	=9	=9	=9	=9	=9	=9	=9	=9
!	!	!	!	!LO:TX:a:t=2:mod=	!	!	!	!	!	!	!	!	!	!	!
.	.	8qff#/	.	.	.	.	.	.	.	.	.	.	.	8qfff#/	.
!	!	!	!	!	!	!	!LO:MO:mod= 	!	!LO:MO:mod= 	!	!	!	!LO:MO:mod= 	!LO:MO:mod=(4eee\	!
4A\	4r	(4ee\	.	1.r	.	4r	p	4r	p	4r	.	4r	p	4eee\	.
!	!	!	!	!	!	!	!LO:DY:p= :mod=%s	!	!LO:DY:p= :mod=%s	!	!	!	!LO:DY:p= :mod=%s	!LO:MO:mod=4ddd#X\)	!
4r	4g 4A/	4dd#X\)	.	.	.	4A\	p	4e\	p	4g\	p	4cc#\	p	4ddd#X\	.
!	!	!	!	!	!	!	!	!	!	!	!	!	!	!LO:MO:mod=4eee'\	!
4r	4g 4A/	4ee'\	.	.	.	4A\	.	4e\	.	4g\	.	4cc#\	.	4eee\	.
=10	=10	=10	=10	=10	=10	=10	=10	=10	=10	=10	=10	=10	=10	=10	=10
4D\	4r	4.ff#\	.	.	.	4r	.	4r	.	4r	.	4r	.	4.fff#\	.
4r	4f# 4A/	.	.	.	.	4d\	.	4f#\	.	4f#/	.	4dd\	.	.	.
.	.	8cc#\L	.	.	.	.	.	.	.	.	.	.	.	8ccc#\L	.
4r	4f# 4A/	8dd\	.	.	.	4d\	.	4f#\	.	4f#/	.	4dd\	.	8ddd\	.
.	.	8b\J	.	.	.	.	.	.	.	.	.	.	.	8bb\J	.
=11	=11	=11	=11	=11	=11	=11	=11	=11	=11	=11	=11	=11	=11	=11	=11
4AA/	4r	4a/	.	4A/	.	4A\	.	4e\	.	4g\	.	4cc#\	.	4aa\	.
4A\	4g 4A/	8aa\L	.	8a/L	.	4A\	.	4e\	.	4g\	.	4cc#\	.	8aaa\L	.
.	.	8aa\J	.	8a/J	.	.	.	.	.	.	.	.	.	8aaa\J	.
4A\	4g 4A/	4aa\	.	4a/	.	4A\	.	4e\	.	4g\	.	4cc#\	.	4aaa\	.
=12	=12	=12	=12	=12	=12	=12	=12	=12	=12	=12	=12	=12	=12	=12	=12
2D\	2f# 2A/	2dd\	.	2d/	.	2F#/	.	2d\	.	2f#/	.	2dd\	.	2dd\	.
!LO:TX:a:t=Fine:mod=	!LO:TX:a:t=Fine:mod=	!LO:TX:a:t=Fine:mod=	!	!LO:TX:a:t=Fine:mod=	!	!LO:TX:a:t=Fine:mod=	!	!LO:TX:a:t=Fine:mod=	!	!LO:TX:a:t=Fine:mod=	!	!LO:TX:a:t=Fine:mod=	!	!LO:TX:a:t=Fine:mod=	!
4r	4r	4r	.	4r	.	4r	.	4r	.	4r	.	4r	.	4r	.
!!LO:TX:a:B:rj:t=:mod=Fine
!	!	!	!	!	!	!LO:MO:mod==13||;	!	!	!	!	!	!	!	!	!
=13||;	=13||;	=13||;	=13||	=13||;	=13||	=13||	=13||	=13||;	=13||	=13||	=13||	=13||;	=13||	=13||;	=13||
*>B	*>B	*>B	*>B	*>B	*>B	*>B	*>B	*>B	*>B	*>B	*>B	*>B	*>B	*>B	*>B
!	!	!	!	!LO:TX:a:t=2:mod=	!	!	!LO:DY:rj	!	!LO:DY:rj	!	!LO:DY:rj	!	!LO:DY:rj	!	!LO:DY:rj
4BB/	4d 4B/	(8ff#\L	.	1.r	.	2e\	ff	2e\	ff	2f#/	ff	2dd\	ff	(8ff#\L	ff
.	.	8ddd\)	.	.	.	.	.	.	.	.	.	.	.	8ddd\)	.
4r	4d 4B/	8ccc#'\	.	.	.	.	.	.	.	.	.	.	.	8ccc#'\	.
.	.	8bb'\J	.	.	.	.	.	.	.	.	.	.	.	8bb'\J	.
4r	4d 4B/	4bb\	.	.	.	4r	.	4r	.	4f#/	.	4dd\	.	4bb\	.
=14	=14	=14	=14	=14	=14	=14	=14	=14	=14	=14	=14	=14	=14	=14	=14
4BB/	4d 4B/	(8bb\L	.	.	.	2.d\	.	2.f#\	.	4f#/	.	4dd\	.	(8bb\L	.
.	.	8aa#X\)	.	.	.	.	.	.	.	.	.	.	.	8aa#X\)	.
4r	4d 4B/	8bb'\	.	.	.	.	.	.	.	4r	.	4r	.	8bb'\	.
.	.	8ccc#'\J	.	.	.	.	.	.	.	.	.	.	.	8ccc#'\J	.
4r	4d 4B/	4ddd\	.	.	.	.	.	.	.	4r	.	4r	.	4ddd\	.
!	!	!	!	!	!	!	!	!	!	!	!	!	!	!LO:LB:g=original	!
=15	=15	=15	=15	=15	=15	=15	=15	=15	=15	=15	=15	=15	=15	=15	=15
4E\	4g#X/	4eee\	.	4r	.	4r	.	4r	.	(4g#\	.	(4b\	.	4eee\	.
4A\	4gn 4A/	8eee\L	.	4A/	.	4A\	.	4e\	.	4gX\)	.	4cc#\)	.	8eee\L	.
.	.	8eee\J	.	.	.	.	.	.	.	.	.	.	.	8eee\J	.
4AA/	4g 4A/	4eee\	.	4A/	.	4A\	.	4e\	.	4g'\	.	4cc#'\	.	4eee\	.
!	!	!LO:LB:g=original	!	!	!	!	!	!	!	!	!	!	!	!	!
=16	=16	=16	=16	=16	=16	=16	=16	=16	=16	=16	=16	=16	=16	=16	=16
!	!	!	!	!	!	!	!	!	!	!	!	!	!	!LO:MO:mod=2ddd\	!
4D\	4r	2ddd\	.	2d/	.	2A\	.	2d\	.	2a\	.	2dd\	.	2fff#\	.
4r	4d 4A/	.	.	.	.	.	.	.	.	.	.	.	.	.	.
4r	4f# 4A/	4ddd\	.	4d/	.	4d\	.	4f#\	.	4f#\	.	4dd\	.	4ddd\	.
!	!	!	!	!	!	!LO:LB:g=original	!	!LO:LB:g=original	!	!	!	!	!	!	!
=17	=17	=17	=17	=17	=17	=17	=17	=17	=17	=17	=17	=17	=17	=17	=17
!	!	!	!	!LO:TX:a:t=2:mod=	!	!	!	!	!	!	!	!	!	!	!
4BB/	4d 4B/	(8ff#\L	.	1.r	.	4d\	.	4f#\	.	2f#/	.	2dd\	.	(8ff#\L	.
.	.	8ddd\)	.	.	.	.	.	.	.	.	.	.	.	8ddd\)	.
4r	4d 4B/	8ccc#'\	.	.	.	4r	.	4r	.	.	.	.	.	8ccc#'\	.
.	.	8bb'\J	.	.	.	.	.	.	.	.	.	.	.	8bb'\J	.
4r	4d 4B/	4bb\	.	.	.	4r	.	4r	.	4f#/	.	4dd\	.	4bb\	.
!	!	!	!	!	!	!	!	!	!	!LO:LB:g=original	!	!LO:LB:g=original	!	!	!
=18	=18	=18	=18	=18	=18	=18	=18	=18	=18	=18	=18	=18	=18	=18	=18
*	*rep	*	*	*	*	*	*	*	*	*	*	*	*	*	*
!	!	!	!	!	!	!	!	!	!	!	!	!	!	!LO:MO:mod=(8bb\L	!
4BB/	4d 4B/	(8bb\L	.	.	.	2.d\	.	2.f#\	.	4f#/	.	4dd\	.	8bb\L	.
!	!	!	!	!	!	!	!	!	!	!	!	!	!	!LO:MO:mod=8aa#X\)	!
.	.	8aa#X\)	.	.	.	.	.	.	.	.	.	.	.	8aa#X\	.
!	!	!	!	!	!	!	!	!	!	!	!	!	!	!LO:MO:mod=8bb'\	!
4r	4d 4B/	8bb'\	.	.	.	.	.	.	.	4r	.	4r	.	8bb\	.
!	!	!	!	!	!	!	!	!	!	!	!	!	!	!LO:MO:mod=8ccc#'\	!
.	.	8ccc#'\	.	.	.	.	.	.	.	.	.	.	.	8ccc#\	.
!	!	!	!	!	!	!	!	!	!	!	!	!	!	!LO:MO:mod=8ddd'\	!
4r	4d 4B/	8ddd'\	.	.	.	.	.	.	.	4r	.	4r	.	8ddd\	.
!	!	!	!	!	!	!	!	!	!	!	!	!	!	!LO:MO:mod=8ddd#X'\J	!
.	.	8ddd#X'\J	.	.	.	.	.	.	.	.	.	.	.	8ddd#X\J	.
*	*Xrep	*	*	*	*	*	*	*	*	*	*	*	*	*	*
=19	=19	=19	=19	=19	=19	=19	=19	=19	=19	=19	=19	=19	=19	=19	=19
*	*rep	*	*	*	*	*	*	*	*	*	*	*	*	*	*
4E\	4d 4B/	4.eee\	.	4ee\	.	4d\	.	4e\	.	2g#/	.	2b\	.	4.eee\	.
4E\	4d 4B/	.	.	4r	.	4d\	.	4e\	.	.	.	.	.	.	.
!	!	!LO:MO:mod=8ddd\L	!	!	!	!	!	!	!	!	!	!	!	!LO:MO:mod=8ddd\L	!
.	.	8dddn\L	.	.	.	.	.	.	.	.	.	.	.	8dddn\L	.
4E\	4d 4B/	8bb\	.	4r	.	4d\	.	4e\	.	4g#/	.	4b\	.	8bb\	.
.	.	8ccc#\J	.	.	.	.	.	.	.	.	.	.	.	8ccc#\J	.
*	*Xrep	*	*	*	*	*	*	*	*	*	*	*	*	*	*
=20	=20	=20	=20	=20	=20	=20	=20	=20	=20	=20	=20	=20	=20	=20	=20
4AA/	2e 2c#/	2aa\	.	2a/	.	2A/	.	2e\	.	2a/	.	2cc#\	.	2aa\	.
4A\	.	.	.	.	.	.	.	.	.	.	.	.	.	.	.
!LO:TX:b:rj:t=Da Capo\nal Fine:mod=	!LO:TX:b:t=D&colon; C&colon;\nal Fine:mod=	!LO:TX:b:rj:t=Da Capo al Fine:mod=	!	!LO:TX:b:rj:t=Da Capo\nal Fine:mod=	!	!LO:TX:b:rj:t=Da Capo al Fine:mod=	!	!LO:TX:b:rj:t=Da Capo al Fine:mod=	!	!LO:TX:b:i:rj:t=Da Capo al Fine:mod=	!	!LO:TX:b:rj:t=Da Capo al Fine:mod=	!	!LO:TX:b:rj:t=Da Capo\nal Fine:mod=	!
4r	4r	4r	.	4r	.	4r	.	4r	.	4r	.	4r	.	4r	.
!!LO:TX:a:B:t=:mod=Da Capo al Fine
==	==	==	==	==	==	==	==	==	==	==	==	==	==	==	==
*-	*-	*-	*-	*-	*-	*-	*-	*-	*-	*-	*-	*-	*-	*-	*-
!!!system-decoration: [(s1,s2,s3)][(s4,s5,s6)][(s7,s8,s9)]
!!!filter-modern: sic -sq | shed -e "s/:rj/:RJ/L" | modori -m | autostem -r | tie -s | shed -k -e "s/[<>]//g" | shed -e "s/^(X?)rep$/$1REP/I"
!!!ENC: Krzysztof Stępień
!!!END: 2020-10-03
!!!ENC: Marta Lawrence
!!!END: 2021-11-01
!!!ENC-modern: Marta Lawrence
!!!END-modern: 2022-06-08
!!!YEC: Copyright 2022 Narodowy Instytut Fryderyka Chopina (https://polishscores.org)
!!!YEM: License CC-BY-4.0 (https://creativecommons.org/licenses/by/4.0)
